public/avatar/body/119.svg

<svg xmlns:xlink="http://www.w3.org/1999/xlink" height="82" width="84.85" xmlns="http://www.w3.org/2000/svg"><g transform="translate(37.4 42.25)"><use height="38" transform="translate(-11.95 -17.45)" width="32.05" xlink:href="#a"/><use height="38.95" transform="translate(-12.45 -17.95)" width="33.05" xlink:href="#b"/><use height="21.8" transform="translate(3.5 .6)" width="18.25" xlink:href="#c"/><use height="21.8" transform="matrix(-1 0 0 1 4.75 .6)" width="18.25" xlink:href="#c"/></g><defs><use height="38" width="32.05" xlink:href="#d" id="a"/><use height="38.95" width="33.05" xlink:href="#e" id="b"/><use height="21.8" width="18.25" xlink:href="#f" id="c"/><path d="M27.35 7.4q2.15 4.15 3.55 8.75 1.45 4.7 1.15 9.5-.35 4.95-4.2 8.1-3.8 3.2-8.75 4.05l-2.6.2q-3.6 0-7.05-1.15-4.65-1.6-7.1-5.5Q-.2 27.4.05 23q.2-4.4 2-9.3Q3.85 8.75 7 5.05 10.1 1.3 14.7.1l1.8-.1q1.9.05 3.7.8 4.75 2.05 7.15 6.6" fill="#bc855a" fill-rule="evenodd" transform="translate(-.05)" id="d"/><path d="M27.35 7.4Q24.95 2.85 20.2.8 17.55-.3 14.7.1 10.1 1.3 7 5.05q-3.15 3.7-4.95 8.65-1.8 4.9-2 9.3-.25 4.4 2.3 8.35 2.45 3.9 7.1 5.5 4.65 1.55 9.65.95 4.95-.85 8.75-4.05 3.85-3.15 4.2-8.1.3-4.8-1.15-9.5-1.4-4.6-3.55-8.75Z" fill="none" stroke="#000" stroke-linecap="round" stroke-linejoin="round" transform="translate(.45 .5)" id="e"/><g id="f"><path d="M5.8 11.8q3.95-.75 7.8-2.2l1.75-.75.25.6-.5.5-1 .8-5.65 2.8-1.15-1.2L4 12.3q2.45.35 3.75 2.55.65 1 .15 2.15l-1.35 1-.55-.1Q3.1 16.3.3 14.3l-.05-.35-.25-.5v-.95h.5l1.6-.25h.4l.05-.05L6.1 7.7l.5-.05.55.7L5.1 11.8h.7M15.95.25l.1-.05.05.15.25 2.3-.15-.75-6.85 4.05-1.2-.75 1.8-1.45 6-3.5.15.1-.15-.1M2.4 17.35l.8 1.35-1.65.45L.4 16l-.15-.6 2.15 1.95M5.15 16l.4-1.05L.9 13.5q1.65 2.05 4.25 2.5" fill="#2dd3fc" fill-rule="evenodd" transform="translate(.5 .25)"/><path d="M16.35 2.65 13.55 4q-5.3 2.4-7.75 7.8h-.7l2.05-3.45 2.2-2.4L16.2 1.9l.15.75M0 16.05v-.8l.05-.05-.05-.15v-1.6l.25.5-.2 1.25.2.2.15.6-.4.05m14.1-5.3-.2.8-5.1 2.85-.35-.85 5.65-2.8M.3 14.3q2.8 2 5.7 3.6l.55.1 1.35-1-1.1 1.7q-3.95-.45-6.35-4.15L.3 14.3" fill="#288382" fill-rule="evenodd" transform="translate(.5 .25)"/><path d="m16.35 2.65.25.1 1.05.6q.5 2-1.1 3.55l-.95.8-.25 1.15-1.75.75q-3.85 1.45-7.8 2.2Q8.25 6.4 13.55 4l2.8-1.35m-1.25 7.3Q18.3 21 6.55 21.55l-3.3-.4q-1.2-.05-1.5-1.4L0 19.8v-3.75L.4 16l1.15 3.15 1.65-.45-.8-1.35q1.55 1.35 3.2 1.75l.5.15q3.4-.8 2.7-4.85l5.1-2.85.2-.8 1-.8m-2.65 8.4q1.85-.75 1-3.75l-.6 1.05q-1.05 1.6-2.35 2.8l-.9.85 2.85-.95" fill-rule="evenodd" transform="translate(.5 .25)"/><path d="M0 12.5V7.9l8.8-4.1Q5.45 6.35 3.2 10l-1.4 2.05H0h1.8L3.2 10q2.25-3.65 5.6-6.2l1.4-.65-.25.6-1.8 1.45-.3.25L5.8 7.7h.3l-3.55 4.5-.05.05h-.4L.55 12.2l-.05.3H0" fill="#715430" fill-rule="evenodd" transform="translate(.5 .25)"/><path d="m9.35 5.95-2.2 2.4-.55-.7-.5.05h-.3l2.05-2.25.3-.25 1.2.75" fill="#adebfd" fill-rule="evenodd" transform="translate(.5 .25)"/><path d="M0 15.25v-.2l.05.15-.05.05m8.8-.85q.7 4.05-2.7 4.85l-.5-.15q-1.65-.4-3.2-1.75L.25 15.4l-.2-.2.2-1.25.05.35.15.25q2.4 3.7 6.35 4.15L7.9 17q.5-1.15-.15-2.15-1.3-2.2-3.75-2.55l3.3.05 1.15 1.2.35.85M.5 12.5l.05-.3 1.55.05-1.6.25" fill="#022b33" fill-rule="evenodd" transform="translate(.5 .25)"/><path d="M5.15 16q-2.6-.45-4.25-2.5l4.65 1.45-.4 1.05" fill="#003532" fill-rule="evenodd" transform="translate(.5 .25)"/><path d="m12.45 18.35-2.85.95.9-.85q1.3-1.2 2.35-2.8l.6-1.05q.85 3-1 3.75" fill="#757367" fill-rule="evenodd" transform="translate(.5 .25)"/><path d="m16.1.35.5 2.4m-.65-2.5.15.1" fill="none" stroke="#000" stroke-linecap="round" stroke-linejoin="round" transform="translate(.5 .25)"/><path d="M8.8 3.8 15.95.25M0 12.05h1.8L3.2 10q2.25-3.65 5.6-6.2" fill="none" stroke="#211707" stroke-linecap="round" stroke-linejoin="round" transform="translate(.5 .25)"/></g></defs></svg>

<?xml version="1.0" encoding="UTF-8" standalone="no"?>
<svg xmlns:xlink="http://www.w3.org/1999/xlink" height="82.0px" width="84.85px" xmlns="http://www.w3.org/2000/svg">
  <g transform="matrix(1.0, 0.0, 0.0, 1.0, 37.4, 42.25)">
    <use height="38.0" transform="matrix(1.0, 0.0, 0.0, 1.0, -11.95, -17.45)" width="32.05" xlink:href="#sprite0"/>
    <use height="38.95" transform="matrix(1.0, 0.0, 0.0, 1.0, -12.45, -17.95)" width="33.05" xlink:href="#sprite1"/>
    <use height="21.8" transform="matrix(1.0, 0.0, 0.0, 1.0, 3.5, 0.6)" width="18.25" xlink:href="#sprite2"/>
    <use height="21.8" transform="matrix(-1.0, 0.0, 0.0, 1.0, 4.75, 0.6)" width="18.25" xlink:href="#sprite2"/>
  </g>
  <defs>
    <g id="sprite0" transform="matrix(1.0, 0.0, 0.0, 1.0, -0.05, 0.0)">
      <use height="38.0" transform="matrix(1.0, 0.0, 0.0, 1.0, 0.05, 0.0)" width="32.05" xlink:href="#shape0"/>
    </g>
    <g id="shape0" transform="matrix(1.0, 0.0, 0.0, 1.0, -0.05, 0.0)">
      <path d="M27.35 7.4 Q29.5 11.55 30.9 16.15 32.35 20.85 32.05 25.65 31.7 30.6 27.85 33.75 24.05 36.95 19.1 37.8 L16.5 38.0 Q12.9 38.0 9.45 36.85 4.8 35.25 2.35 31.35 -0.2 27.4 0.05 23.0 0.25 18.6 2.05 13.7 3.85 8.75 7.0 5.05 10.1 1.3 14.7 0.1 L16.5 0.0 Q18.4 0.05 20.2 0.8 24.95 2.85 27.35 7.4" fill="#bc855a" fill-rule="evenodd" stroke="none"/>
    </g>
    <g id="sprite1" transform="matrix(1.0, 0.0, 0.0, 1.0, 0.45, 0.5)">
      <use height="38.95" transform="matrix(1.0, 0.0, 0.0, 1.0, -0.45, -0.5)" width="33.05" xlink:href="#shape1"/>
    </g>
    <g id="shape1" transform="matrix(1.0, 0.0, 0.0, 1.0, 0.45, 0.5)">
      <path d="M27.35 7.4 Q24.95 2.85 20.2 0.8 17.55 -0.3 14.7 0.1 10.1 1.3 7.0 5.05 3.85 8.75 2.05 13.7 0.25 18.6 0.05 23.0 -0.2 27.4 2.35 31.35 4.8 35.25 9.45 36.85 14.1 38.4 19.1 37.8 24.05 36.95 27.85 33.75 31.7 30.6 32.05 25.65 32.35 20.85 30.9 16.15 29.5 11.55 27.35 7.4 Z" fill="none" stroke="#000000" stroke-linecap="round" stroke-linejoin="round" stroke-width="1.0"/>
    </g>
    <g id="sprite2" transform="matrix(1.0, 0.0, 0.0, 1.0, 0.5, 0.25)">
      <use height="21.8" transform="matrix(1.0, 0.0, 0.0, 1.0, -0.5, -0.25)" width="18.25" xlink:href="#shape2"/>
    </g>
    <g id="shape2" transform="matrix(1.0, 0.0, 0.0, 1.0, 0.5, 0.25)">
      <path d="M5.8 11.8 Q9.75 11.05 13.6 9.6 L15.35 8.85 15.6 9.45 15.1 9.95 14.1 10.75 8.45 13.55 7.3 12.35 4.0 12.3 Q6.45 12.65 7.75 14.85 8.4 15.85 7.9 17.0 L6.55 18.0 6.0 17.9 Q3.1 16.3 0.3 14.3 L0.25 13.95 0.0 13.45 0.0 12.5 0.5 12.5 2.1 12.25 2.5 12.25 2.55 12.2 6.1 7.7 6.6 7.65 7.15 8.35 5.1 11.8 5.8 11.8 M15.95 0.25 L16.05 0.2 16.1 0.35 16.35 2.65 16.2 1.9 9.35 5.95 8.15 5.2 9.95 3.75 15.95 0.25 16.1 0.35 15.95 0.25 M2.4 17.35 L3.2 18.7 1.55 19.15 0.4 16.0 0.25 15.4 2.4 17.35 M5.15 16.0 L5.55 14.95 0.9 13.5 Q2.55 15.55 5.15 16.0" fill="#2dd3fc" fill-rule="evenodd" stroke="none"/>
      <path d="M16.35 2.65 L13.55 4.0 Q8.25 6.4 5.8 11.8 L5.1 11.8 7.15 8.35 9.35 5.95 16.2 1.9 16.35 2.65 M0.0 16.05 L0.0 15.25 0.05 15.2 0.0 15.05 0.0 13.45 0.25 13.95 0.05 15.2 0.25 15.4 0.4 16.0 0.0 16.05 M14.1 10.75 L13.9 11.55 8.8 14.4 8.45 13.55 14.1 10.75 M0.3 14.3 Q3.1 16.3 6.0 17.9 L6.55 18.0 7.9 17.0 6.8 18.7 Q2.85 18.25 0.45 14.55 L0.3 14.3" fill="#288382" fill-rule="evenodd" stroke="none"/>
      <path d="M16.35 2.65 L16.6 2.75 17.65 3.35 Q18.15 5.35 16.55 6.9 L15.6 7.7 15.35 8.85 13.6 9.6 Q9.75 11.05 5.8 11.8 8.25 6.4 13.55 4.0 L16.35 2.65 M15.1 9.95 Q18.3 21.0 6.55 21.55 L3.25 21.15 Q2.05 21.1 1.75 19.75 L0.0 19.8 0.0 16.05 0.4 16.0 1.55 19.15 3.2 18.7 2.4 17.35 Q3.95 18.7 5.6 19.1 L6.1 19.25 Q9.5 18.45 8.8 14.4 L13.9 11.55 14.1 10.75 15.1 9.95 M12.45 18.35 Q14.3 17.6 13.45 14.6 L12.85 15.65 Q11.8 17.25 10.5 18.45 L9.6 19.3 12.45 18.35" fill="#000000" fill-rule="evenodd" stroke="none"/>
      <path d="M0.0 12.5 L0.0 12.05 0.0 7.9 8.8 3.8 Q5.45 6.35 3.2 10.0 L1.8 12.05 0.0 12.05 1.8 12.05 3.2 10.0 Q5.45 6.35 8.8 3.8 L10.2 3.15 9.95 3.75 8.15 5.2 7.85 5.45 5.8 7.7 6.1 7.7 2.55 12.2 2.5 12.25 2.1 12.25 0.55 12.2 0.5 12.5 0.0 12.5" fill="#715430" fill-rule="evenodd" stroke="none"/>
      <path d="M9.35 5.95 L7.15 8.35 6.6 7.65 6.1 7.7 5.8 7.7 7.85 5.45 8.15 5.2 9.35 5.95" fill="#adebfd" fill-rule="evenodd" stroke="none"/>
      <path d="M0.0 15.25 L0.0 15.05 0.05 15.2 0.0 15.25 M8.8 14.4 Q9.5 18.45 6.1 19.25 L5.6 19.1 Q3.95 18.7 2.4 17.35 L0.25 15.4 0.05 15.2 0.25 13.95 0.3 14.3 0.45 14.55 Q2.85 18.25 6.8 18.7 L7.9 17.0 Q8.4 15.85 7.75 14.85 6.45 12.65 4.0 12.3 L7.3 12.35 8.45 13.55 8.8 14.4 M0.5 12.5 L0.55 12.2 2.1 12.25 0.5 12.5" fill="#022b33" fill-rule="evenodd" stroke="none"/>
      <path d="M5.15 16.0 Q2.55 15.55 0.9 13.5 L5.55 14.95 5.15 16.0" fill="#003532" fill-rule="evenodd" stroke="none"/>
      <path d="M12.45 18.35 L9.6 19.3 10.5 18.45 Q11.8 17.25 12.85 15.65 L13.45 14.6 Q14.3 17.6 12.45 18.35" fill="#757367" fill-rule="evenodd" stroke="none"/>
      <path d="M16.1 0.35 L16.6 2.75 M15.95 0.25 L16.1 0.35" fill="none" stroke="#000000" stroke-linecap="round" stroke-linejoin="round" stroke-width="1.0"/>
      <path d="M8.8 3.8 L15.95 0.25 M0.0 12.05 L1.8 12.05 3.2 10.0 Q5.45 6.35 8.8 3.8" fill="none" stroke="#211707" stroke-linecap="round" stroke-linejoin="round" stroke-width="1.0"/>
    </g>
  </defs>
</svg>
